X: 26759
T: Mill Of Roleen, The
R: jig
M: 6/8
K: Gmajor
|:G>AG/E/ DEG|edc dBA|G>AG/E/ DEG|BAG AGE|
G>AG/E/ DEG|edc dBA|G>AG/E/ DEG|BGG G3:|
|:d>ed/B/ GBd|ged edB|d>ed/B/ GBd|dBG AFD|
d>ed/B/ GBd|ged edB|G>AG/E/ DEG|BGG G3:|

